packages/dnb-eufemia/assets/icons/tractor.svg

<svg width="16" height="16" viewBox="0 0 16 16" fill="none" xmlns="http://www.w3.org/2000/svg">
<path d="M8.93252 8.73088C8.08618 7.49689 6.69444 6.66988 5.1783 6.5C4.31468 6.40323 3.4348 6.52569 2.63234 6.83727M1 7.84205C1.47457 7.4096 2.03177 7.07047 2.63234 6.83727M14.0665 11.2623C14.6294 11.6284 15 12.2518 15 12.9593C15 14.0864 14.0596 15 12.8997 15C11.8186 15 10.9283 14.2064 10.8122 13.1861M14.0665 11.2623C13.7328 11.0452 13.3314 10.9186 12.8997 10.9186C11.6635 10.9186 10.6771 11.9986 10.8122 13.1861M14.0665 11.2623V8.42931C14.0665 8.03465 13.7789 7.66467 13.3882 7.5568L8.60701 6.83727L7.68783 3.35632H8.31017C8.31017 3.03103 8.44472 2 7.91246 2H3.41829C2.88602 2 3.02058 3.03103 3.02058 3.35632H3.64285L2.63234 6.83727M7.52884 13.1877C7.00414 14.2593 5.87958 15 4.57696 15C2.77259 15 1.30986 13.5788 1.30986 11.8256C1.30986 10.0724 2.77259 8.65121 4.57696 8.65121C6.38133 8.65121 7.84406 10.0724 7.84406 11.8256C7.84406 12.3131 7.73095 12.775 7.52884 13.1877ZM7.52884 13.1877L10.8122 13.1861" stroke="black" stroke-width="1.5" stroke-linecap="round" stroke-linejoin="round"/>
</svg>

<svg width="16" height="16" viewBox="0 0 16 16" fill="none" xmlns="http://www.w3.org/2000/svg"><path d="M8.933 8.73C8.086 7.498 6.694 6.67 5.178 6.5a5.403 5.403 0 0 0-2.546.337M1 7.842a5.24 5.24 0 0 1 1.632-1.005m11.434 4.425c.563.366.934.99.934 1.697C15 14.086 14.06 15 12.9 15c-1.081 0-1.972-.794-2.088-1.814m3.255-1.924a2.134 2.134 0 0 0-1.167-.343c-1.236 0-2.223 1.08-2.088 2.267m3.255-1.924V8.43a.931.931 0 0 0-.679-.872l-4.781-.72-.92-3.48h.623C8.31 3.03 8.445 2 7.912 2H3.418c-.532 0-.397 1.031-.397 1.356h.622l-1.01 3.481m4.896 6.35A3.276 3.276 0 0 1 4.577 15c-1.804 0-3.267-1.421-3.267-3.174 0-1.754 1.463-3.175 3.267-3.175 1.804 0 3.267 1.421 3.267 3.175 0 .487-.113.949-.315 1.362Zm0 0h3.283" stroke="#000" stroke-width="1.5" stroke-linecap="round" stroke-linejoin="round"/></svg>
